X: 38625
T: Stool Of Repentance, The
R: jig
M: 6/8
K: Amajor
e|:a2e c2e|agf edc|aff f2e|fag f2e|
a2e c2e|agf edc|d2e f2e|1 fac B2e:|2 fac B2A||
|:cAA eAA|cAc edc|dBB fBB|dBd fed|
cAA eAA|cAc edc|d2e f2e|1 fac B2e:|2 fac B2e||

